X: 29633
T: North Wind, The
R: hornpipe
M: 4/4
K: Gmajor
G2 GF GBdB|c2 A2 A2 dc|BGBd gdBG|defe dcBA|
G2 GF GBdB|c2 A2 A2 dc|B2 GB AGFE|1 D2 G2 GDBA:|2 D2 G2 GABd||
gfga bgdB|c2 A2 A2 (3 efg|agab agfe|dgfe dcBA|
G2 GF GBdB|c2 A2 A2 dc|BAGB AGFE|D2 G2 GABd|
gfga bgdB|c2 A2 A2 (3 efg|agab agfa|(3 gfe (3dcB cAFA|
G2 GF GBdB|c2 A2 A2 dc|B2 GB AGFE|D2 G2 G4||

